packages/match-icons/twilio/svg/engagement.svg

<svg fill="none" height="32" viewBox="0 0 32 32" width="32" xmlns="http://www.w3.org/2000/svg"><g clip-rule="evenodd" fill-rule="evenodd" stroke="#394762" stroke-width="1.7"><path d="m28.662 8.82883c0-.43828-.0567-.86213-.1526-1.26947l1.5593-.90028-1.5665-2.71631-1.6913.90234c-.6166-.58369-1.5448-1.02403-2.3285-1.27359v-1.79747h-3.1361v1.7985c-.7837.24853-1.4509.68887-2.0666 1.27256l-1.4943-.90234-1.5355 2.71631 1.5758.90028c-.098.40734-.1454.83119-.1454 1.26947s.0598.86006.1557 1.26847l-1.5562.9013 1.5685 2.7153 1.4283-.9014c.6188.5837 1.286 1.0261 2.0697 1.2736v1.7975h3.1361v-1.7975c.7837-.2475 1.7129-.6899 2.3285-1.2736l1.6263.9014 1.5995-2.7153-1.5438-.9013c.0959-.40738.1691-.83019.1691-1.26847zm-3.4289 0c0 1.13747-.9219 2.05837-2.0583 2.05837-1.1365 0-2.0574-.9209-2.0574-2.05837 0-1.13644.9209-2.05838 2.0574-2.05838 1.1364 0 2.0583.92194 2.0583 2.05838z"/><path d="m9.88504 13.7963c.99206-.9921.99206-2.6009 0-3.594l-2.69569-2.69564c-.99309-.99309-2.60288-.99309-3.59494 0l-1.47881 1.47778c-1.282875 1.28286-1.481906 3.28456-.48159 4.79736 4.29618 6.4948 10.02689 12.2245 16.52169 16.5206 1.5097.9983 3.5165.7993 4.7963-.4816l1.4788-1.4777c.9921-.9921.9921-2.6019 0-3.595l-2.6957-2.6957c-.9931-.9931-2.6018-.9931-3.5949 0l-.8982.8983c-2.9566-2.4224-5.8328-5.2996-8.25518-8.2562z"/></g></svg>

<svg width="32" height="32" viewBox="0 0 32 32" fill="none" xmlns="http://www.w3.org/2000/svg">
<path fill-rule="evenodd" clip-rule="evenodd" d="M28.662 8.82883C28.662 8.39055 28.6053 7.9667 28.5094 7.55936L30.0687 6.65908L28.5022 3.94277L26.8109 4.84511C26.1943 4.26142 25.2661 3.82108 24.4824 3.57152V1.77405H21.3463V3.57255C20.5626 3.82108 19.8954 4.26142 19.2797 4.84511L17.7854 3.94277L16.2499 6.65908L17.8257 7.55936C17.7277 7.9667 17.6803 8.39055 17.6803 8.82883C17.6803 9.26711 17.7401 9.68889 17.836 10.0973L16.2798 10.9986L17.8483 13.7139L19.2766 12.8125C19.8954 13.3962 20.5626 13.8386 21.3463 14.0861V15.8836H24.4824V14.0861C25.2661 13.8386 26.1953 13.3962 26.8109 12.8125L28.4372 13.7139L30.0367 10.9986L28.4929 10.0973C28.5888 9.68992 28.662 9.26711 28.662 8.82883ZM25.2331 8.82883C25.2331 9.9663 24.3112 10.8872 23.1748 10.8872C22.0383 10.8872 21.1174 9.9663 21.1174 8.82883C21.1174 7.69239 22.0383 6.77045 23.1748 6.77045C24.3112 6.77045 25.2331 7.69239 25.2331 8.82883Z" stroke="#394762" stroke-width="1.7"/>
<path fill-rule="evenodd" clip-rule="evenodd" d="M9.88504 13.7963C10.8771 12.8042 10.8771 11.1954 9.88504 10.2023L7.18935 7.50666C6.19626 6.51357 4.58647 6.51357 3.59441 7.50666L2.1156 8.98444C0.832725 10.2673 0.633694 12.269 1.63401 13.7818C5.93019 20.2766 11.6609 26.0063 18.1557 30.3024C19.6654 31.3007 21.6722 31.1017 22.952 29.8208L24.4308 28.3431C25.4229 27.351 25.4229 25.7412 24.4308 24.7481L21.7351 22.0524C20.742 21.0593 19.1333 21.0593 18.1402 22.0524L17.242 22.9507C14.2854 20.5283 11.4092 17.6511 8.98682 14.6945L9.88504 13.7963Z" stroke="#394762" stroke-width="1.7"/>
</svg>
